packages/amis-editor/src/icons/form/input-kv.svg

<svg width="16" height="16" xmlns="http://www.w3.org/2000/svg"><g fill="none" fill-rule="evenodd" stroke="currentColor"><path stroke-linejoin="round" d="M2 2h12v12H2z"/><path d="M5.09 9.785v-1.23l.435-.425 1.41 1.655h.79L5.92 7.745l1.57-1.53h-.74L5.09 7.9V6.215h-.585v3.57h.585Zm5.135 0 1.27-3.57h-.635l-.98 2.91h-.015l-.98-2.91H8.25l1.27 3.57h.705Z" stroke-width=".1" fill="currentColor" fill-rule="nonzero"/></g></svg>

<?xml version="1.0" encoding="UTF-8"?>
<svg width="16px" height="16px" viewBox="0 0 16 16" version="1.1" xmlns="http://www.w3.org/2000/svg" xmlns:xlink="http://www.w3.org/1999/xlink">
    <g id="KV建值对" stroke="none" stroke-width="1" fill="none" fill-rule="evenodd">
        <rect id="方形" stroke="currentColor" stroke-linejoin="round" x="2" y="2" width="12" height="12"></rect>
        <path d="M5.09,9.785 L5.09,8.555 L5.525,8.13 L6.935,9.785 L7.725,9.785 L5.92,7.745 L7.49,6.215 L6.75,6.215 L5.09,7.9 L5.09,6.215 L4.505,6.215 L4.505,9.785 L5.09,9.785 Z M10.225,9.785 L11.495,6.215 L10.86,6.215 L9.88,9.125 L9.865,9.125 L8.885,6.215 L8.25,6.215 L9.52,9.785 L10.225,9.785 Z" id="KV" stroke="currentColor" stroke-width="0.1" fill="currentColor" fill-rule="nonzero"></path>
    </g>
</svg>
